X:71
T:The April Fools
R:jig
C:Paul S. Cranford
O:Cape Breton Island
S:http://www.cranfordpub.com
D:currently unrecorded
B:currently unpublished in book form
Z:psc
H:                                                        copyrights Cranford Publications, SOCAN
L:1/8
Q:300
M:6/8
K:G
B|:edd BdA|Bge dBG|AED EGD|EGB ABd|
edd BdA|Bge dBG|AGE DGE|[1DB,A, G,Bd:|[2DB,A, G,2||
|:A,|G,B,B, DB,B,|DGB ABd|eBB AEE|GDB, A,B,A,|
G,B,B, DB,B,|DGB ABd|edg edB|dBA G2:|
